X:171
T: Muede kehrt ein Wandersmann zurueck
N: D1002
O: Europa, Mitteleuropa, Schweiz, Wimmis
N: DVA-Signatur A 18 747
R: Liebes - Lied
M: 4/4
L: 1/8
K: G
DG | B3AGFGA | D4z2
DE | A3GFAed | B4z2
DG | B3dcBAG | E4z2
GE | D3GFAcB | G4z2

